svg/clipboard_arrow_left.svg

<svg xmlns="http://www.w3.org/2000/svg" viewBox="0 0 24 24"><path d="M16 15h-4v3l-5-5 5-5v3h4m-4-8a1 1 0 0 1 1 1 1 1 0 0 1-1 1 1 1 0 0 1-1-1 1 1 0 0 1 1-1m7 0h-4.18C14.4 1.84 13.3 1 12 1s-2.4.84-2.82 2H5a2 2 0 0 0-2 2v14a2 2 0 0 0 2 2h14a2 2 0 0 0 2-2V5a2 2 0 0 0-2-2"/></svg>

<?xml version="1.0" encoding="UTF-8"?><!DOCTYPE svg PUBLIC "-//W3C//DTD SVG 1.1//EN" "http://www.w3.org/Graphics/SVG/1.1/DTD/svg11.dtd"><svg xmlns="http://www.w3.org/2000/svg" xmlns:xlink="http://www.w3.org/1999/xlink" version="1.1" id="mdi-clipboard-arrow-left" width="24" height="24" viewBox="0 0 24 24"><path d="M16,15H12V18L7,13L12,8V11H16M12,3A1,1 0 0,1 13,4A1,1 0 0,1 12,5A1,1 0 0,1 11,4A1,1 0 0,1 12,3M19,3H14.82C14.4,1.84 13.3,1 12,1C10.7,1 9.6,1.84 9.18,3H5A2,2 0 0,0 3,5V19A2,2 0 0,0 5,21H19A2,2 0 0,0 21,19V5A2,2 0 0,0 19,3Z" /></svg>
